apps/www/public/images/logos/publicity/goodtape.svg

<svg width="168" height="60" viewBox="0 0 168 60" fill="none" xmlns="http://www.w3.org/2000/svg">
<path d="M44.9246 43.1929H12.811C11.3476 43.1929 10.1592 42.0122 10.1592 40.5581V22.442C10.1592 20.9879 11.3476 19.8071 12.811 19.8071H44.9246C46.3881 19.8071 47.5765 20.9879 47.5765 22.442V40.5581C47.5765 42.0122 46.3881 43.1929 44.9246 43.1929ZM37.6788 27.094C35.1975 27.094 33.1839 29.0947 33.1839 31.5602C33.1839 34.0256 35.1975 36.0263 37.6788 36.0263C40.1601 36.0263 42.1738 34.0256 42.1738 31.5602C42.1738 29.0947 40.1601 27.094 37.6788 27.094ZM20.4914 27.094C18.0101 27.094 15.9965 29.0947 15.9965 31.5602C15.9965 34.0256 18.0101 36.0263 20.4914 36.0263C22.9727 36.0263 24.9864 34.0256 24.9864 31.5602C24.9864 29.0947 22.9727 27.094 20.4914 27.094Z" fill="#7E7E7E"/>
<path fill-rule="evenodd" clip-rule="evenodd" d="M108.451 25.946H105.183C105.16 27.8555 105.16 27.8555 105.137 29.7275C104.97 29.4935 104.922 29.4271 104.868 29.3664L104.862 29.3596L104.854 29.3508L104.846 29.3418C104.831 29.3255 104.814 29.3082 104.793 29.2868C104.057 28.6337 103.278 28.3125 102.282 28.3074C102.222 28.3083 102.164 28.3088 102.105 28.3092C101.678 28.3125 101.265 28.3167 100.849 28.4217C100.821 28.4303 100.794 28.4388 100.766 28.4472L100.766 28.4473L100.702 28.467C100.535 28.516 100.373 28.5688 100.211 28.6304C99.5172 28.9297 98.7647 29.4255 98.4491 30.1397C98.4374 30.1743 98.4257 30.2074 98.4141 30.241H98.3207C97.8739 31.2569 97.7269 32.1822 97.7544 33.2849C97.8034 34.3656 98.2096 35.3923 98.9953 36.1373L99.013 36.154L99.0317 36.1715L99.033 36.1727C99.0456 36.1845 99.058 36.1961 99.0705 36.2078C99.1998 36.3306 99.3183 36.4366 99.4817 36.5118L99.5144 36.5222C99.5369 36.5294 99.5592 36.5366 99.5812 36.5435V36.6369C100.814 37.1938 102.191 37.5071 103.524 37.0584C104.188 36.7905 104.894 36.4016 105.194 35.7125C105.206 35.6775 105.218 35.6439 105.23 35.6098H105.323C105.323 35.6638 105.323 35.7074 105.325 35.7509C105.33 35.9332 105.359 36.1147 105.51 37.0554L105.51 37.0567L105.51 37.057H108.451V25.946ZM104.755 31.4392C105.135 31.8575 105.253 32.3668 105.238 32.9237C105.21 33.3248 105.126 33.639 104.903 33.976C104.875 34.018 104.847 34.0605 104.819 34.1044C104.42 34.5148 103.844 34.6315 103.29 34.6455C102.645 34.6525 102.08 34.5792 101.589 34.1161C101.259 33.7865 101.172 33.3187 101.16 32.8701C101.168 32.2814 101.303 31.7403 101.729 31.315C102.55 30.6703 103.989 30.7394 104.755 31.4392Z" fill="#7E7E7E"/>
<path d="M66.9663 26.2145C66.9908 26.2147 67.0033 26.2148 67.0157 26.2149L67.0395 26.2149L67.0678 26.2149C67.5771 26.2178 68.0804 26.228 68.5823 26.3195C68.6215 26.3265 68.6607 26.3335 68.7013 26.341C69.8059 26.5473 70.8002 26.9283 71.6168 27.7201C71.627 27.729 71.6372 27.7379 71.6474 27.7469C71.6665 27.7637 71.6857 27.7807 71.7055 27.798C72.2881 28.3293 72.6877 29.277 72.7839 30.0543V30.4278H69.0491L69.002 30.2704L69.0016 30.269L69.0012 30.2677L69.0008 30.2665L68.9915 30.2353C68.9783 30.1914 68.9651 30.1473 68.9519 30.103L68.9263 30.0179L68.909 29.9609H68.8157C68.7956 29.9264 68.7755 29.8914 68.7545 29.8559C68.5496 29.5216 68.17 29.3736 67.8063 29.2723C67.0234 29.108 66.0519 29.1295 65.3587 29.5697L65.2676 29.6341C65.2524 29.6445 65.2371 29.6547 65.2217 29.6649C65.2058 29.6755 65.1897 29.6862 65.1733 29.697L65.171 29.6986C64.7336 30.0296 64.545 30.566 64.4614 31.0902C64.3517 31.9212 64.4203 32.7536 64.6607 33.5557H64.7541C64.7695 33.5954 64.7849 33.6346 64.8008 33.6752C65.0356 34.079 65.432 34.2882 65.868 34.4226C66.1832 34.505 66.4962 34.5019 66.8193 34.4986L66.8549 34.4982H67.0276C67.7559 34.4945 68.4119 34.4305 68.9562 33.8923C69.1336 33.6957 69.2293 33.5253 69.3292 33.2756L66.4814 33.2289L66.4786 32.2746L66.4772 31.9731V31.7382C66.477 31.718 66.4769 31.6978 66.4768 31.6774V31.6756C66.4766 31.6551 66.4765 31.6345 66.4763 31.6136C66.4763 31.5141 66.4786 31.4142 66.4814 31.3148C66.5449 31.2517 66.622 31.2556 66.7056 31.2598C66.7271 31.2609 66.7491 31.262 66.7713 31.262C66.8236 31.262 66.8764 31.262 66.9305 31.2616C66.9889 31.262 67.0472 31.262 67.107 31.262H67.2919C67.4595 31.2616 67.6271 31.2616 67.7947 31.262C67.9697 31.262 68.1448 31.262 68.3199 31.2616C68.614 31.2616 68.9081 31.2616 69.2022 31.262C69.4291 31.2624 69.656 31.2623 69.8829 31.2621C69.9963 31.2621 70.1098 31.262 70.2232 31.262C70.515 31.2616 70.8068 31.2616 71.0986 31.262C71.1739 31.262 71.2493 31.262 71.3247 31.262C71.4239 31.262 71.523 31.2618 71.6219 31.2616C71.7192 31.2616 71.8165 31.2617 71.9137 31.2618L72.2055 31.262C72.2634 31.262 72.3217 31.262 72.3819 31.2616C72.4608 31.262 72.4608 31.262 72.5411 31.262H72.6807C72.7424 31.2657 72.7672 31.2671 72.7872 31.2777C72.8006 31.2848 72.8118 31.296 72.8306 31.3148C72.8352 31.389 72.8366 31.4637 72.8366 31.5384V31.685C72.8366 31.7387 72.8362 31.7919 72.8362 31.847V32.0169C72.8362 32.094 72.836 32.171 72.8359 32.248C72.8358 32.3251 72.8357 32.4021 72.8357 32.4791C72.8356 32.5252 72.8355 32.5713 72.8354 32.6174C72.8353 32.6616 72.8353 32.7059 72.8353 32.7502L72.8352 32.9614C72.8352 33.0645 72.8352 33.1677 72.8351 33.2708C72.835 33.3874 72.8349 33.5041 72.8347 33.6206L72.8343 33.8755C72.8337 34.1274 72.8335 34.3793 72.8333 34.6312C72.8332 34.7602 72.8331 34.8893 72.8329 35.0183C72.8324 35.6976 72.8315 36.3773 72.8306 37.057H69.8894L69.8893 37.0559C69.8158 36.4657 69.7929 36.2817 69.7772 36.0971C69.7736 36.0542 69.7703 36.0113 69.7669 35.9634C69.7654 35.9408 69.7637 35.9171 69.762 35.8917L69.7535 35.7657C69.7517 35.7373 69.7497 35.7086 69.7475 35.6794C69.7446 35.6379 69.7417 35.5965 69.7388 35.5551C69.7354 35.5052 69.732 35.4553 69.7287 35.4054L69.7204 35.283C69.7187 35.259 69.717 35.2349 69.7153 35.2108L69.7093 35.1239C69.7066 35.0859 69.704 35.0479 69.7013 35.0099C69.6938 34.8997 69.6862 34.7897 69.6786 34.6796C69.671 34.5695 69.6635 34.4595 69.656 34.3493C69.6471 34.3927 69.6382 34.4366 69.6294 34.4814L69.6269 34.4931C69.6196 34.5283 69.6122 34.5636 69.6048 34.5992C69.6009 34.6182 69.5969 34.6373 69.593 34.6565C69.585 34.6938 69.5773 34.7313 69.5694 34.7691L69.5684 34.7745L69.557 34.8292C69.367 35.6359 68.931 36.3059 68.2382 36.768C67.0454 37.48 65.4665 37.5043 64.1439 37.1728C62.9978 36.8591 62.1295 36.2004 61.5328 35.1896C61.5137 35.157 61.4941 35.1243 61.4736 35.0907C60.6458 33.6644 60.6948 31.5309 61.094 29.9763C61.4054 28.8573 62.1248 27.8195 63.1201 27.2065H63.2135V27.1132C63.783 26.8191 64.3255 26.5842 64.9497 26.4302L64.9728 26.4245L64.9988 26.4181L65.0318 26.4098L65.0664 26.4012C65.6957 26.2528 66.3222 26.2093 66.966 26.2145H66.9663Z" fill="#7E7E7E"/>
<path fill-rule="evenodd" clip-rule="evenodd" d="M141.643 28.315L141.661 28.3148C141.691 28.3145 141.72 28.3141 141.749 28.3137L141.837 28.3125C142.242 28.3092 142.608 28.3568 142.998 28.467C143.035 28.4768 143.071 28.4866 143.109 28.4969C144.119 28.7817 144.891 29.4689 145.398 30.3718C145.629 30.8344 145.753 31.3218 145.846 31.8283C145.854 31.8713 145.862 31.9142 145.87 31.9586C146.054 33.199 145.86 34.5122 145.11 35.5351C145.03 35.6392 144.948 35.7414 144.866 35.8432C144.832 35.8894 144.798 35.9356 144.763 35.9833C144.602 36.1754 144.39 36.3219 144.184 36.4655L144.183 36.4656L144.182 36.4664C144.16 36.4822 144.137 36.498 144.114 36.5138C144.1 36.5237 144.086 36.5336 144.072 36.5435C144.039 36.5668 144.006 36.5902 143.972 36.614C143.004 37.2573 141.71 37.3544 140.589 37.1826C140.352 37.1345 140.137 37.0612 139.917 36.9636C139.871 36.944 139.826 36.9244 139.779 36.9039C139.204 36.6378 138.882 36.3189 138.516 35.7965L138.47 40.0448H135.155V28.5137H138.05C138.207 29.5778 138.232 29.7436 138.236 29.9099C138.236 29.9405 138.236 29.9712 138.236 30.0076H138.33C138.336 29.9884 138.342 29.9693 138.349 29.9501C138.354 29.9352 138.359 29.9202 138.364 29.9049C138.456 29.7005 138.61 29.5444 138.765 29.3867C138.78 29.3719 138.795 29.357 138.809 29.3421C138.821 29.3305 138.832 29.319 138.843 29.3073C138.875 29.2742 138.906 29.241 138.938 29.2074C139.627 28.5356 140.621 28.3186 141.55 28.3158C141.581 28.3156 141.612 28.3154 141.643 28.315ZM142.485 32.3416C142.388 31.879 142.209 31.5424 141.831 31.2623C141 30.7473 139.612 30.738 138.887 31.4467C138.529 31.8486 138.422 32.3738 138.418 32.9028C138.439 33.3902 138.532 33.8122 138.89 34.1623C139.501 34.6731 140.23 34.6838 140.991 34.6292C141.482 34.5423 141.86 34.3729 142.181 33.9849C142.507 33.519 142.553 32.893 142.485 32.3416Z" fill="#7E7E7E"/>
<path fill-rule="evenodd" clip-rule="evenodd" d="M79.2607 28.2655C79.3774 28.2655 79.4946 28.2646 79.6113 28.2632C80.981 28.2581 82.3106 28.6129 83.3816 29.4943C83.4152 29.5195 83.4488 29.5452 83.4833 29.5718C84.255 30.1955 84.7256 31.2296 84.8288 32.202C84.89 33.589 84.7023 34.7711 83.755 35.8434L83.7312 35.8714L83.6993 35.9089L83.6799 35.9317C83.2383 36.4162 82.6313 36.7052 82.0272 36.9293C81.9642 36.9527 81.9012 36.9765 81.8386 37.0012C80.1328 37.6641 77.8013 37.4657 76.1422 36.7626C75.5138 36.4718 74.8915 35.9942 74.5581 35.3766V35.2832H74.4648C73.9092 33.9322 73.6842 32.4233 74.2607 31.0358C74.461 30.5942 74.7024 30.2305 75.025 29.8678C75.0544 29.8346 75.0833 29.8015 75.1137 29.7669C75.4391 29.4205 75.8532 29.1302 76.2855 28.9341H76.3788V28.8407C77.3419 28.4906 78.2322 28.2627 79.2607 28.2655ZM79.3725 30.918L79.514 30.917C80.0574 30.9264 80.5938 31.0538 80.992 31.4446C81.4177 31.9656 81.4813 32.6747 81.421 33.3222C81.3795 33.4926 81.3197 33.6364 81.2343 33.7891C81.2072 33.8381 81.1801 33.8871 81.1521 33.938C80.8221 34.3507 80.4444 34.5384 79.9271 34.6294C79.2012 34.6766 78.4561 34.7008 77.873 34.2093C77.5074 33.8759 77.3777 33.4357 77.3482 32.9525C77.3333 32.3731 77.4127 31.8923 77.8263 31.4549C78.2693 31.0268 78.7773 30.9208 79.3725 30.918Z" fill="#7E7E7E"/>
<path fill-rule="evenodd" clip-rule="evenodd" d="M91.5159 28.2632C91.3992 28.2646 91.282 28.2655 91.1653 28.2655C90.6135 28.2641 90.0752 28.2833 89.537 28.4187L89.3866 28.464C89.283 28.4948 89.1798 28.527 89.0771 28.5606C87.86 28.9887 86.812 29.6932 86.2303 30.879C85.7265 31.9854 85.6761 33.3985 86.0832 34.5405C86.4996 35.6123 87.1397 36.342 88.1901 36.8238C89.7755 37.5082 92.1219 37.6315 93.7433 37.0012C93.8058 36.9765 93.8688 36.9527 93.9319 36.9293C94.5616 36.6959 95.162 36.3924 95.6242 35.8924L95.6693 35.8398L95.7064 35.7967C96.3025 35.1161 96.6942 34.2678 96.7414 33.357C96.7848 32.0097 96.571 30.8052 95.6233 29.7828C94.5215 28.6988 93.0351 28.2576 91.5159 28.2632ZM91.294 30.9261L91.3306 30.9255C91.3541 30.9252 91.3778 30.9248 91.4019 30.9244C91.9229 30.9239 92.3958 31.036 92.8118 31.3614C92.9201 31.4781 93.0069 31.6009 93.0919 31.7348C93.1076 31.7558 93.1234 31.7765 93.1392 31.7974C93.1506 31.8124 93.1621 31.8275 93.1736 31.8427C93.4145 32.3609 93.4014 33.1013 93.2273 33.6372C93.0844 33.9958 92.7936 34.2932 92.4453 34.4598C92.062 34.6018 91.7179 34.6391 91.3123 34.641L91.1731 34.6438C90.6409 34.6466 90.105 34.5229 89.6984 34.1625C89.4327 33.8805 89.2843 33.4725 89.2637 33.0887L89.2567 32.9659C89.2395 32.4328 89.317 31.909 89.6839 31.5014C89.9108 31.2899 90.1396 31.1391 90.4309 31.0346C90.4487 31.027 90.4665 31.0195 90.4844 31.0119L90.4867 31.0109L90.4996 31.0055C90.5152 30.9989 90.5308 30.9923 90.5466 30.9856C90.7741 30.9247 90.9934 30.9256 91.2268 30.9266L91.2567 30.9267L91.294 30.9261Z" fill="#7E7E7E"/>
<path fill-rule="evenodd" clip-rule="evenodd" d="M152.333 28.2655C152.46 28.2655 152.586 28.2646 152.713 28.2632C154.043 28.2585 155.395 28.534 156.443 29.4009C156.476 29.4257 156.509 29.4509 156.542 29.477C157.338 30.1185 157.727 31.1754 157.89 32.1553V33.6492H150.234C150.446 34.2295 150.591 34.456 151.121 34.723C151.581 34.9153 152.044 34.9191 152.537 34.9214L152.716 34.9242C153.215 34.9261 153.665 34.8602 154.062 34.5362L154.073 34.5162L154.083 34.4982L154.092 34.4819C154.1 34.4681 154.108 34.4542 154.115 34.4401C154.154 34.3994 154.176 34.377 154.202 34.3626C154.234 34.3449 154.272 34.3392 154.358 34.3266C154.395 34.3264 154.433 34.3264 154.47 34.3268C154.498 34.327 154.525 34.3274 154.552 34.328H154.66C154.778 34.328 154.895 34.3294 155.013 34.3313L155.079 34.3314L155.187 34.3317L155.257 34.3318C155.471 34.3327 155.686 34.3346 155.9 34.3364C156.118 34.3383 156.336 34.3392 156.553 34.3402L156.556 34.3402C156.986 34.342 157.415 34.3453 157.844 34.3495C157.822 34.4045 157.801 34.4596 157.779 34.5147L157.711 34.6875C157.707 34.6972 157.703 34.7069 157.699 34.7166L157.673 34.7841C157.541 35.117 157.361 35.3728 157.143 35.6567L157.143 35.657C157.121 35.6877 157.099 35.7184 157.076 35.7505C156.291 36.764 154.854 37.1235 153.653 37.2776C153.618 37.2818 153.584 37.286 153.549 37.2907L153.464 37.301L153.438 37.3042L153.397 37.3093C151.658 37.4797 149.647 37.356 148.221 36.2426C147.445 35.5685 147.068 34.6464 146.919 33.6492C146.847 32.3388 147.024 31.0045 147.926 29.9873C147.968 29.944 148.01 29.9009 148.051 29.8579C148.079 29.83 148.106 29.8022 148.133 29.7744L148.137 29.7698L148.138 29.7686L148.16 29.7439C148.176 29.726 148.192 29.7079 148.208 29.6894C148.748 29.0942 149.569 28.7333 150.327 28.5139C150.356 28.5049 150.371 28.5003 150.385 28.4958C150.4 28.4913 150.415 28.4869 150.444 28.478C151.069 28.294 151.686 28.2641 152.333 28.2655ZM152.504 30.6437C152.553 30.6432 152.601 30.6423 152.651 30.6418C153.148 30.6446 153.722 30.7226 154.105 31.0681C154.324 31.3024 154.529 31.5905 154.529 31.9219H150.281C150.372 31.4654 150.65 31.1946 151.028 30.9415C151.469 30.6512 151.987 30.6475 152.499 30.6437L152.504 30.6437Z" fill="#7E7E7E"/>
<path fill-rule="evenodd" clip-rule="evenodd" d="M128.843 28.2686H128.724L128.711 28.2686C128.296 28.2691 127.881 28.2695 127.468 28.3134L127.434 28.3178L127.401 28.3219L127.359 28.327C126.283 28.4549 125.272 28.8144 124.418 29.4941C123.784 30.0856 123.514 30.7929 123.437 31.6416H126.845L126.846 31.638C126.958 31.3033 127.036 31.0676 127.332 30.8662C128.018 30.495 129.066 30.4903 129.81 30.693C129.845 30.7051 129.878 30.7168 129.912 30.7284C129.93 30.7344 129.947 30.7402 129.965 30.746C130.121 30.7974 130.269 30.846 130.361 30.9908C130.405 31.1794 130.419 31.3661 130.346 31.5482C130.201 31.6626 130.082 31.7308 129.903 31.7798L129.833 31.7912L129.719 31.8097C129.311 31.8759 128.9 31.9194 128.489 31.9609C128.246 31.985 127.991 32.0031 127.73 32.0217C126.693 32.0956 125.562 32.1761 124.692 32.6649C124.678 32.673 124.664 32.6809 124.65 32.6888C124.635 32.6976 124.62 32.7064 124.604 32.7153C124.302 32.8671 124.017 33.0211 123.77 33.255C123.329 33.7587 123.156 34.3367 123.145 35.0029C123.167 35.6061 123.358 36.1513 123.802 36.5757C123.852 36.6125 123.869 36.6245 123.897 36.6447L123.951 36.6835C124.174 36.8558 124.4 36.9851 124.663 37.0892C126.243 37.6154 127.906 37.3497 129.366 36.6369V36.5435H129.459C129.842 36.2755 130.131 35.9618 130.404 35.586C130.425 35.5564 130.445 35.5276 130.466 35.499L130.487 35.4697C130.522 35.6212 130.54 35.697 130.558 35.7728C130.567 35.8115 130.576 35.8502 130.587 35.8989C130.597 35.9459 130.61 36.0021 130.627 36.0766C130.721 36.572 130.721 36.572 130.813 37.057H133.708V37.0516C133.709 36.3844 133.71 35.7177 133.71 35.0505C133.71 34.6756 133.711 34.3003 133.711 33.9249C133.712 33.6252 133.712 33.325 133.712 33.0253C133.712 32.9572 133.712 32.8891 133.712 32.821L133.712 32.7871V32.7868C133.712 32.7076 133.712 32.6286 133.712 32.5496C133.713 32.3979 133.713 32.2466 133.713 32.0954V31.9268C133.716 30.988 133.541 30.1201 132.87 29.4241C131.791 28.4203 130.252 28.2705 128.843 28.2686ZM130.057 34.2573C130.338 33.9067 130.468 33.5851 130.44 33.1355C130.18 33.1355 129.828 33.2568 129.473 33.3789C129.177 33.4806 128.879 33.5828 128.633 33.6159C128.563 33.6253 128.492 33.6341 128.421 33.643C127.884 33.7098 127.338 33.7779 126.889 34.0981C126.726 34.2489 126.708 34.4011 126.695 34.6168L126.695 34.6172C126.7 34.6745 126.704 34.711 126.716 34.7442C126.738 34.8022 126.786 34.8504 126.918 34.9824C127.222 35.2232 127.222 35.2233 128.06 35.2008C128.798 35.156 129.557 34.8045 130.057 34.2573Z" fill="#7E7E7E"/>
<path d="M113.4 26.4596H123.484V29.4474H120.123V37.057H116.668V29.4474H113.4V26.4596Z" fill="#7E7E7E"/>
</svg>

<svg xmlns="http://www.w3.org/2000/svg" width="168" height="60" fill="none" viewBox="0 0 168 60"><path fill="#7e7e7e" d="M44.925 43.193H12.81a2.645 2.645 0 0 1-2.652-2.635V22.442a2.645 2.645 0 0 1 2.652-2.635h32.114a2.645 2.645 0 0 1 2.652 2.635v18.116a2.645 2.645 0 0 1-2.652 2.635m-7.246-16.099c-2.482 0-4.495 2-4.495 4.466s2.014 4.466 4.495 4.466 4.495-2 4.495-4.466c0-2.465-2.014-4.466-4.495-4.466m-17.188 0c-2.48 0-4.494 2-4.494 4.466s2.013 4.466 4.494 4.466c2.482 0 4.495-2 4.495-4.466 0-2.465-2.013-4.466-4.495-4.466"/><path fill="#7e7e7e" fill-rule="evenodd" d="M108.451 25.946h-3.268l-.046 3.781a5 5 0 0 0-.269-.36l-.006-.007-.008-.01-.008-.008-.053-.055c-.736-.653-1.515-.974-2.511-.98l-.177.002c-.427.003-.84.008-1.256.113l-.083.025-.064.02a7 7 0 0 0-.491.163c-.694.3-1.446.796-1.762 1.51l-.035.101h-.093c-.447 1.016-.594 1.941-.567 3.044.05 1.08.456 2.107 1.241 2.852l.018.017.019.017.001.002.037.035a1.5 1.5 0 0 0 .412.304l.032.01.067.022v.093c1.233.557 2.61.87 3.943.421.664-.267 1.37-.656 1.67-1.346l.036-.102h.093c0 .054 0 .097.002.14.005.183.034.365.185 1.305v.002h2.941zm-3.696 5.493c.38.419.498.928.483 1.485-.028.4-.112.715-.335 1.052l-.084.128c-.399.41-.975.528-1.529.541-.645.008-1.21-.066-1.701-.529-.33-.33-.417-.797-.429-1.246.008-.589.143-1.13.569-1.555.821-.645 2.26-.576 3.026.124" clip-rule="evenodd"/><path fill="#7e7e7e" d="M66.966 26.215h.102c.51.003 1.012.013 1.514.105l.12.021c1.104.206 2.098.587 2.915 1.38l.03.026.058.051c.583.531.983 1.479 1.079 2.256v.374h-3.735l-.047-.158v-.002L69 30.266l-.01-.03-.04-.133-.025-.085-.017-.057h-.093q-.03-.052-.062-.105c-.204-.334-.584-.482-.948-.584-.783-.164-1.754-.142-2.447.298l-.091.064-.095.063-.002.002c-.437.33-.626.867-.71 1.391a5.9 5.9 0 0 0 .2 2.466h.093l.047.12c.235.403.631.612 1.067.747.315.082.628.079.951.076h.209c.728-.005 1.384-.069 1.928-.607.178-.196.273-.367.373-.616l-2.848-.047-.002-.954-.002-.302v-.359q0-.15.004-.3c.064-.062.141-.058.225-.054l.065.002h5.91c.061.004.086.005.106.016a.2.2 0 0 1 .044.037q.006.111.006.223v.479l-.001.231v1.023l-.001.35v.255l-.002.755v.387l-.002 2.039h-2.942v-.001c-.073-.59-.096-.774-.112-.959l-.01-.134-.005-.071-.008-.126-.007-.087-.008-.124-.01-.15-.009-.122-.005-.072-.006-.087-.008-.114-.022-.33-.023-.33-.027.131-.002.012-.022.106-.012.058-.024.112v.006l-.012.054c-.19.807-.626 1.477-1.319 1.939-1.193.712-2.772.736-4.094.405q-1.718-.47-2.611-1.983l-.06-.1c-.827-1.426-.778-3.56-.379-5.114.311-1.119 1.03-2.156 2.026-2.77h.094v-.093c.569-.294 1.112-.529 1.736-.683l.023-.006.026-.006.033-.008.034-.009c.63-.148 1.256-.192 1.9-.186"/><path fill="#7e7e7e" fill-rule="evenodd" d="M141.643 28.315h.018l.088-.001.088-.002c.405-.003.771.045 1.161.155l.111.03c1.01.285 1.782.972 2.289 1.875.231.462.355.95.448 1.456l.024.13c.184 1.241-.01 2.554-.76 3.577q-.12.156-.244.308l-.103.14c-.161.192-.373.339-.579.483h-.002l-.068.048-.042.03-.1.07c-.968.643-2.262.74-3.383.569a3.2 3.2 0 0 1-.672-.22l-.138-.06c-.575-.265-.897-.584-1.263-1.106l-.046 4.248h-3.315V28.514h2.895c.157 1.064.182 1.23.186 1.396v.098h.094a1 1 0 0 1 .034-.103c.092-.204.246-.36.401-.518l.078-.08.095-.1c.689-.671 1.683-.888 2.612-.891zm.842 4.027c-.097-.463-.276-.8-.654-1.08-.831-.515-2.219-.524-2.944.185-.358.402-.465.927-.469 1.456.021.487.114.91.472 1.26.611.51 1.34.52 2.101.466.491-.087.869-.256 1.19-.644.326-.466.372-1.092.304-1.643M79.26 28.266q.176 0 .351-.003c1.37-.005 2.7.35 3.77 1.231l.102.078c.772.624 1.243 1.658 1.346 2.63.061 1.387-.127 2.57-1.074 3.641l-.024.028-.032.038-.02.023c-.44.484-1.048.773-1.652.997q-.095.035-.188.072c-1.706.663-4.038.465-5.697-.238-.628-.291-1.25-.769-1.584-1.386v-.094h-.093c-.556-1.35-.78-2.86-.204-4.247.2-.442.441-.806.764-1.168l.089-.101a3.8 3.8 0 0 1 1.171-.833h.094v-.093c.963-.35 1.853-.578 2.882-.576m.112 2.652.142-.001c.543.01 1.08.137 1.478.528.426.52.49 1.23.429 1.877a1.8 1.8 0 0 1-.187.467l-.082.149c-.33.413-.708.6-1.225.691-.726.048-1.47.072-2.054-.42-.366-.333-.495-.773-.525-1.257-.015-.579.065-1.06.478-1.497.443-.428.951-.534 1.547-.537M91.516 28.263q-.176.003-.35.002c-.552 0-1.09.018-1.629.154l-.15.045q-.156.045-.31.097c-1.217.428-2.265 1.132-2.847 2.318-.504 1.106-.554 2.52-.147 3.662.417 1.071 1.057 1.801 2.107 2.283 1.585.684 3.932.808 5.553.177l.189-.072c.63-.233 1.23-.537 1.692-1.037l.045-.052.037-.043c.596-.68.988-1.53 1.035-2.44.044-1.347-.17-2.552-1.118-3.574-1.102-1.084-2.588-1.525-4.107-1.52m-.222 2.663h.037l.07-.002c.522 0 .995.112 1.41.437.11.117.196.24.28.374q.025.03.048.062l.035.046c.24.518.227 1.258.053 1.794a1.58 1.58 0 0 1-.782.823c-.383.142-.727.18-1.133.181l-.139.003c-.532.003-1.068-.121-1.475-.481-.265-.282-.414-.69-.434-1.074l-.007-.123c-.017-.533.06-1.057.427-1.465.227-.211.456-.362.747-.466l.053-.023.003-.001.013-.005q.022-.01.047-.02c.227-.061.446-.06.68-.06h.067M152.333 28.266q.19 0 .38-.003c1.33-.005 2.682.271 3.73 1.138l.099.076c.796.642 1.185 1.698 1.348 2.678v1.494h-7.656c.212.58.357.807.887 1.074.46.192.923.196 1.416.198l.179.003c.499.002.949-.064 1.346-.388l.011-.02.01-.018.009-.016.023-.042a.4.4 0 0 1 .087-.077.5.5 0 0 1 .156-.036l.194.001h.108q.177 0 .353.003h.244l.643.005.653.004h.003q.645.003 1.288.01l-.065.165-.068.172-.012.03-.026.067c-.132.333-.312.589-.53.873l-.067.094c-.785 1.013-2.222 1.373-3.423 1.527l-.104.013-.085.01-.026.003-.041.005c-1.739.17-3.75.047-5.176-1.066-.776-.675-1.153-1.597-1.302-2.594-.072-1.31.105-2.645 1.007-3.662l.125-.13.082-.083.004-.004.001-.001.022-.025.048-.055c.54-.595 1.361-.956 2.119-1.175l.058-.018.059-.018c.625-.184 1.242-.214 1.889-.213m.171 2.378.147-.002c.497.003 1.071.08 1.454.426.219.234.424.522.424.854h-4.248c.091-.457.369-.727.747-.98.441-.29.959-.294 1.471-.298zM128.843 28.269h-.132c-.415 0-.83 0-1.243.044l-.034.005-.033.004-.042.005c-1.076.128-2.087.487-2.941 1.167-.634.592-.904 1.299-.981 2.148h3.408l.001-.004c.112-.335.19-.57.486-.772.686-.371 1.734-.376 2.478-.173l.102.035.053.018c.156.051.304.1.396.245.044.188.058.375-.015.557a1.14 1.14 0 0 1-.443.232l-.07.011-.114.019c-.408.066-.819.11-1.23.15q-.366.036-.759.062c-1.037.074-2.168.154-3.038.643l-.042.024-.046.026c-.302.152-.587.306-.834.54-.441.504-.614 1.082-.625 1.748.022.603.213 1.148.657 1.573l.095.069.054.038c.223.173.449.302.712.406 1.58.526 3.243.26 4.703-.452v-.093h.093c.383-.268.672-.582.945-.958l.062-.087.021-.03.1.43.04.178.186.98h2.895v-.005l.002-2.001.001-1.126.001-.9v-.475l.001-.455v-.168c.003-.939-.172-1.807-.843-2.503-1.079-1.004-2.618-1.154-4.027-1.155m1.214 5.988c.281-.35.411-.672.383-1.121-.26 0-.612.12-.967.243-.296.102-.594.204-.84.237q-.105.014-.212.027c-.537.067-1.083.135-1.532.455-.163.15-.181.303-.194.519a.5.5 0 0 0 .021.127c.022.058.07.106.202.238.304.241.304.241 1.142.219a3.03 3.03 0 0 0 1.997-.944" clip-rule="evenodd"/><path fill="#7e7e7e" d="M113.4 26.46h10.084v2.987h-3.361v7.61h-3.455v-7.61H113.4z"/></svg>
